packages/ui/public/icons/edit-icon.svg

<svg width="23" height="23" viewBox="0 0 23 23" fill="none" xmlns="http://www.w3.org/2000/svg">
<path d="M10 3.5H5C3.93913 3.5 2.92178 3.92142 2.17163 4.67157C1.42149 5.42172 1 6.43913 1 7.5V17.5C1 18.5609 1.42149 19.5783 2.17163 20.3284C2.92178 21.0786 3.93913 21.5 5 21.5H16C18.21 21.5 19 19.7 19 17.5V12.5" stroke="#C943A8" stroke-opacity="0.75" stroke-width="2" stroke-linecap="round" stroke-linejoin="round"/>
<path d="M20.2369 5.98672L10.6969 15.5267C9.74693 16.4767 6.9269 16.9167 6.2969 16.2867C5.6669 15.6567 6.0969 12.8367 7.0469 11.8867L16.5969 2.33669C16.8324 2.07975 17.1175 1.87321 17.4351 1.72951C17.7526 1.58581 18.096 1.50791 18.4445 1.50057C18.793 1.49324 19.1393 1.55658 19.4626 1.68679C19.7859 1.817 20.0795 2.0114 20.3257 2.2582C20.5718 2.505 20.7653 2.7991 20.8946 3.12276C21.0239 3.44643 21.0864 3.79293 21.0781 4.14138C21.0698 4.48983 20.991 4.83302 20.8464 5.15017C20.7018 5.46732 20.4945 5.75191 20.2369 5.98672V5.98672Z" stroke="#C943A8" stroke-width="2" stroke-linecap="round" stroke-linejoin="round"/>
</svg>

<svg width="23" height="23" fill="none" xmlns="http://www.w3.org/2000/svg"><path d="M10 3.5H5a4 4 0 0 0-4 4v10a4 4 0 0 0 4 4h11c2.21 0 3-1.8 3-4v-5" stroke="#C943A8" stroke-opacity=".75" stroke-width="2" stroke-linecap="round" stroke-linejoin="round"/><path d="m20.237 5.987-9.54 9.54c-.95.95-3.77 1.39-4.4.76-.63-.63-.2-3.45.75-4.4l9.55-9.55a2.58 2.58 0 1 1 3.64 3.65v0Z" stroke="#C943A8" stroke-width="2" stroke-linecap="round" stroke-linejoin="round"/></svg>
